christians-website/frontend/static/images/socialmedia/githubIcon.svg

<svg height="143" viewBox="0 0 146 143" width="146" xmlns="http://www.w3.org/2000/svg"><path d="m136.20754 36.5032007c-6.527862-11.2295943-15.382491-20.1200797-26.566216-26.6734618-11.1853901-6.55371636-23.3965013-9.8297389-36.6419898-9.8297389-13.2438239 0-25.4589302 3.27702531-36.6419897 9.8297389-11.1847241 6.5530479-20.0390199 15.4438675-26.56688238 26.6734618-6.52686377 11.22926-9.79046212 23.4916988-9.79046212 36.7869823 0 15.9706516 4.64088146 30.331871 13.9249748 43.087334 9.2830946 12.756466 21.2754785 21.583443 35.976153 26.481934 1.7112002.318879 2.9779544.094594 3.8015944-.66717.8239728-.762768 1.2354599-1.718065 1.2354599-2.861882 0-.190859-.016313-1.907922-.0479403-5.153193-.032626-3.245271-.0479402-6.076402-.0479402-8.492055l-2.1862746.379713c-1.3939291.256373-3.1524037.365005-5.2754238.334254-2.1220214-.029749-4.324942-.25303-6.6057654-.668174-2.2818222-.411466-4.4041766-1.365761-6.3687276-2.860879-1.9635523-1.495118-3.3574813-3.452174-4.1814542-5.868162l-.9504818-2.196048c-.6335436-1.462026-1.6309669-3.086166-2.9936016-4.866402-1.3626347-1.781908-2.7405836-2.989902-4.1345127-3.625987l-.6655037-.478317c-.4434472-.317876-.8549343-.701265-1.2354599-1.146157-.3801927-.444892-.6648379-.890118-.8549343-1.336013-.1904292-.446229-.032626-.812237.4750745-1.099361.5077004-.287124 1.4252233-.426508 2.7565637-.426508l1.9002978.285119c1.2674201.255036 2.8351325 1.0168 4.7051347 2.289973 1.8690035 1.272171 3.4054216 2.926059 4.6095872 4.960997 1.4581822 2.609186 3.2149922 4.597328 5.2754237 5.965429 2.058767 1.368102 4.1345127 2.050982 6.2252398 2.050982s3.8964761-.159105 5.4179128-.475643c1.5197722-.31821 2.9456614-.796527 4.2770018-1.432278.5702891-4.264411 2.1230201-7.540434 4.6568615-9.830407-3.611498-.38105-6.8584504-.954964-9.7425219-1.718065-2.8824068-.764105-5.8610271-2.004187-8.9338632-3.723589-3.0745008-1.7170623-5.6249881-3.849268-7.6521278-6.3929402-2.0274726-2.5450093-3.6913983-5.8862113-4.9894469-10.0205979-1.2987144-4.1360579-1.948238-8.9071981-1.948238-14.3147578 0-7.6995388 2.5035458-14.2515839 7.5096386-19.6598121-2.3450767-5.7886092-2.123686-12.2778145.6648379-19.4669475 1.8377092-.5732455 4.5629786-.1430607 8.1744766 1.2878803 3.6121638 1.4316094 6.256867 2.657987 7.9367729 3.6747874 1.6799058 1.0164661 3.0258946 1.8778385 4.0399639 2.5764291 5.8943189-1.653554 11.9770696-2.4804982 18.2499167-2.4804982s12.3569295.8269442 18.2515814 2.4804982l3.6118309-2.289305c2.4699211-1.5275403 5.3866184-2.9273957 8.7431014-4.1999003 3.35848-1.2718361 5.926612-1.6221342 7.701732-1.0488888 2.850447 7.1894673 3.104464 13.6783384.758721 19.4669476 5.00576 5.4082282 7.510305 11.9619445 7.510305 19.659812 0 5.4075597-.651854 10.1937414-1.948571 14.3615534-1.298382 4.1684805-2.976623 7.50634-5.03539 10.0205979-2.061097 2.5139236-4.627898 4.6294166-7.700734 6.3461449-3.073502 1.718065-6.0531208 2.958147-8.9355277 3.722251-2.8837385.764105-6.130691 1.338353-9.742189 1.720071 3.293894 2.861882 4.9411738 7.379323 4.9411738 13.550319v20.134453c0 1.143816.3961728 2.09878 1.1891843 2.861882.7920127.761764 2.0427868.986049 3.753987.666836 14.7026716-4.897822 26.6950556-13.725134 35.9778176-26.4816 9.281763-12.755463 13.924309-27.1166824 13.924309-43.0873341-.003329-13.2936121-3.268592-25.5550482-9.79246-36.7843082z" fill="#ff7000"/></svg>

<?xml version="1.0" encoding="UTF-8"?>
<svg width="146px" height="143px" viewBox="0 0 146 143" version="1.1" xmlns="http://www.w3.org/2000/svg" xmlns:xlink="http://www.w3.org/1999/xlink">
    <!-- Generator: Sketch 53.2 (72643) - https://sketchapp.com -->
    <title>githubIcon</title>
    <desc>Created with Sketch.</desc>
    <g id="Page-1" stroke="none" stroke-width="1" fill="none" fill-rule="evenodd">
        <g id="Group-18" transform="translate(-442.000000, -1331.000000)" fill="#ff7000" fill-rule="nonzero">
            <g id="githubIcon" transform="translate(442.000000, 1331.000000)">
                <path d="M136.20754,36.5032007 C129.679678,25.2736064 120.825049,16.383121 109.641324,9.8297389 C98.4559339,3.27602254 86.2448227,0 72.9993342,0 C59.7555103,0 47.540404,3.27702531 36.3573445,9.8297389 C25.1726204,16.3827868 16.3183246,25.2736064 9.79046212,36.5032007 C3.26359835,47.7324607 0,59.9948995 0,73.290183 C0,89.2608346 4.64088146,103.622054 13.9249748,116.377517 C23.2080694,129.133983 35.2004533,137.96096 49.9011278,142.859451 C51.612328,143.17833 52.8790822,142.954045 53.7027222,142.192281 C54.526695,141.429513 54.9381821,140.474216 54.9381821,139.330399 C54.9381821,139.13954 54.9218691,137.422477 54.8902418,134.177206 C54.8576158,130.931935 54.8423016,128.100804 54.8423016,125.685151 L52.656027,126.064864 C51.2620979,126.321237 49.5036233,126.429869 47.3806032,126.399118 C45.2585818,126.369369 43.0556612,126.146088 40.7748378,125.730944 C38.4930156,125.319478 36.3706612,124.365183 34.4061102,122.870065 C32.4425579,121.374947 31.0486289,119.417891 30.224656,117.001903 L29.2741742,114.805855 C28.6406306,113.343829 27.6432073,111.719689 26.2805726,109.939453 C24.9179379,108.157545 23.539989,106.949551 22.1460599,106.313466 L21.4805562,105.835149 C21.037109,105.517273 20.6256219,105.133884 20.2450963,104.688992 C19.8649036,104.2441 19.5802584,103.798874 19.390162,103.352979 C19.1997328,102.90675 19.357536,102.540742 19.8652365,102.253618 C20.3729369,101.966494 21.2904598,101.82711 22.6218002,101.82711 L24.522098,102.112229 C25.7895181,102.367265 27.3572305,103.129029 29.2272327,104.402202 C31.0962362,105.674373 32.6326543,107.328261 33.8368199,109.363199 C35.2950021,111.972385 37.0518121,113.960527 39.1122436,115.328628 C41.1710106,116.69673 43.2467563,117.37961 45.3374834,117.37961 C47.4282105,117.37961 49.2339595,117.220505 50.7553962,116.903967 C52.2751684,116.585757 53.7010576,116.10744 55.032398,115.471689 C55.6026871,111.207278 57.1554181,107.931255 59.6892595,105.641282 C56.0777615,105.260232 52.8308091,104.686318 49.9467376,103.923217 C47.0643308,103.159112 44.0857105,101.91903 41.0128744,100.199628 C37.9383736,98.4825657 35.3878863,96.35036 33.3607466,93.8066878 C31.333274,91.2616785 29.6693483,87.9204765 28.3712997,83.7860899 C27.0725853,79.650032 26.4230617,74.8788918 26.4230617,69.4713321 C26.4230617,61.7717933 28.9266075,55.2197482 33.9327003,49.81152 C31.5876236,44.0229108 31.8090143,37.5337055 34.5975382,30.3445725 C36.4352474,29.771327 39.1605168,30.2015118 42.7720148,31.6324528 C46.3841786,33.0640622 49.0288818,34.2904398 50.7087877,35.3072402 C52.3886935,36.3237063 53.7346823,37.1850787 54.7487516,37.8836693 C60.6430705,36.2301153 66.7258212,35.4031711 72.9986683,35.4031711 C79.2715154,35.4031711 85.3555978,36.2301153 91.2502497,37.8836693 L94.8620806,35.5943643 C97.3320017,34.066824 100.248699,32.6669686 103.605182,31.394464 C106.963662,30.1226279 109.531794,29.7723298 111.306914,30.3455752 C114.157361,37.5350425 114.411378,44.0239136 112.065635,49.8125228 C117.071395,55.220751 119.57594,61.7744673 119.57594,69.4723348 C119.57594,74.8798945 118.924086,79.6660762 117.627369,83.8338882 C116.328987,88.0023687 114.650746,91.3402282 112.591979,93.8544861 C110.530882,96.3684097 107.964081,98.4839027 104.891245,100.200631 C101.817743,101.918696 98.8381242,103.158778 95.9557173,103.922882 C93.0719788,104.686987 89.8250263,105.261235 86.2135283,105.642953 C89.5074223,108.504835 91.1547021,113.022276 91.1547021,119.193272 L91.1547021,139.327725 C91.1547021,140.471541 91.5508749,141.426505 92.3438864,142.189607 C93.1358991,142.951371 94.3866732,143.175656 96.0978734,142.856443 C110.800545,137.958621 122.792929,129.131309 132.075691,116.374843 C141.357454,103.61938 146,89.2581606 146,73.2875089 C145.996671,59.9938968 142.731408,47.7324607 136.20754,36.5032007 Z" id="Path"></path>
            </g>
        </g>
    </g>
</svg>
